app/images/icons/user.svg

<svg xmlns="http://www.w3.org/2000/svg" width="20" height="20"><path fill-rule="evenodd" fill="#29282D" d="M17.7 12.927c-1.719-1.089-3.015-1.607-4.43-2.383a5.781 5.781 0 002.511-4.764c0-3.189-2.594-5.68-5.782-5.68-3.187 0-5.781 2.491-5.781 5.68a5.78 5.78 0 002.51 4.764c-1.414.776-2.558 1.294-3.8 2.383C1.4 14.816 0 17.327 0 19.998h1.562c0-4.652 3.785-8.437 8.437-8.437 4.653 0 8.438 3.785 8.438 8.437h1.562c0-2.671-1.04-5.182-2.299-7.071zM5.781 5.78a4.223 4.223 0 014.218-4.219 4.223 4.223 0 014.219 4.219 4.223 4.223 0 01-4.219 4.218A4.223 4.223 0 015.781 5.78z"/></svg>

<svg 
 xmlns="http://www.w3.org/2000/svg"
 xmlns:xlink="http://www.w3.org/1999/xlink"
 width="20px" height="20px">
<path fill-rule="evenodd"  fill="rgb(41, 40, 45)"
 d="M17.70,12.927 C15.981,11.838 14.685,11.32 13.270,10.544 C14.785,9.500 15.781,7.754 15.781,5.780 C15.781,2.591 13.187,0.1 9.999,0.1 C6.812,0.1 4.218,2.591 4.218,5.780 C4.218,7.754 5.213,9.500 6.728,10.544 C5.314,11.32 4.17,11.838 2.928,12.927 C1.40,14.816 0.0,17.327 0.0,19.998 L1.562,19.998 C1.562,15.346 5.347,11.561 9.999,11.561 C14.652,11.561 18.437,15.346 18.437,19.998 L19.999,19.998 C19.999,17.327 18.959,14.816 17.70,12.927 ZM5.781,5.780 C5.781,3.453 7.673,1.561 9.999,1.561 C12.326,1.561 14.218,3.453 14.218,5.780 C14.218,8.106 12.326,9.998 9.999,9.998 C7.673,9.998 5.781,8.106 5.781,5.780 Z"/>
</svg>
